public/html.svg

<?xml version="1.0" encoding="UTF-8"?><svg id="Layer_2" xmlns="http://www.w3.org/2000/svg" viewBox="0 0 296.76 420.25"><defs><style>.cls-1{fill:#f15a24;}.cls-2{fill:#fff;}</style></defs><g id="Layer_1-2"><polygon class="cls-1" points="296.76 82.1 0 82.1 27.7 385.26 149.39 420.25 269.6 385.89 296.76 82.1"/><polygon class="cls-2" points="67.07 275.57 104.97 275.57 107.49 305.05 148.33 315.99 190.79 305.82 194.93 257.47 65.39 257.47 56.12 144.21 242.65 144.21 238.86 181.68 96.55 181.68 99.57 220.49 234.81 220.68 224.97 335.36 149.39 356.42 71.7 334.52 67.07 275.57"/><path class="cls-1" d="m65.53,57.09v-20.19h-14.5v20.19h-19.33V0h19.33v20.19h14.5V0h19.33v57.09h-19.33Z"/><path class="cls-1" d="m145.28,17.91h-17.26v39.18h-17.84V17.91h-17.47V0h52.57v17.91Z"/><path class="cls-1" d="m270.94,57.09h-44.67V0h17.33v40.18h27.34v16.91Z"/><polygon class="cls-1" points="153.81 57.09 153.81 0 173.86 0 185.7 19.67 197.86 0 218.23 0 218.23 57.09 198.81 57.09 198.81 28.54 186.02 49.35 172.12 28.54 172.12 57.09 153.81 57.09"/></g></svg>

<?xml version="1.0" encoding="utf-8"?>
<!-- Generator: Adobe Illustrator 27.1.1, SVG Export Plug-In . SVG Version: 6.00 Build 0)  -->
<svg version="1.1" id="Layer_2_00000156557837665929689190000002029353921459822513_"
	 xmlns="http://www.w3.org/2000/svg" xmlns:xlink="http://www.w3.org/1999/xlink" x="0px" y="0px" viewBox="0 0 296.8 420.2"
	 style="enable-background:new 0 0 296.8 420.2;" xml:space="preserve">
<style type="text/css">
	.st0{fill:#F15A24;}
	.st1{fill:#FFFFFF;}
</style>
<g id="Layer_1-2">
	<polygon class="st0" points="296.8,82.1 0,82.1 27.7,385.3 149.4,420.2 269.6,385.9 	"/>
	<polygon class="st1" points="67.1,275.6 105,275.6 107.5,305 148.3,316 190.8,305.8 194.9,257.5 65.4,257.5 56.1,144.2 
		242.6,144.2 238.9,181.7 96.6,181.7 99.6,220.5 234.8,220.7 225,335.4 149.4,356.4 71.7,334.5 	"/>
	<path d="M65.5,57.1V36.9H51v20.2H31.7V0H51v20.2h14.5V0h19.3v57.1H65.5z"/>
	<path d="M145.3,17.9H128v39.2h-17.8V17.9H92.7V0h52.6V17.9z"/>
	<path d="M270.9,57.1h-44.7V0h17.3v40.2h27.3V57.1z"/>
	<polygon points="153.8,57.1 153.8,0 173.9,0 185.7,19.7 197.9,0 218.2,0 218.2,57.1 198.8,57.1 198.8,28.5 186,49.3 172.1,28.5 
		172.1,57.1 	"/>
</g>
</svg>
